X:10
T:Lou Rousinhol
M:2/4
L:1/8
N:Pas vite
N:La Bourre 4th edition 1929, page 28
Z:Steve Mansfield www.lesession.co.uk April 2012
K:G
B A | G > G G A | B c d g |
d4- | d z G A | B > B B B | c B A G |
A2 A2 |A2 A2 | B A G D | G2 A2 | !fermata! G4 |]
<end>
<start>
